source/img/logo.svg

<svg width="97" height="30" viewBox="0 0 97 30" fill="none" xmlns="http://www.w3.org/2000/svg">
<path d="M55.3923 29.9928C54.2015 29.9928 53.1298 29.7476 52.1771 29.2573C51.2385 28.7529 50.503 28.0595 49.9706 27.1769C49.4383 26.2943 49.1721 25.2926 49.1721 24.1718C49.1721 23.051 49.4383 22.0494 49.9706 21.1668C50.503 20.2842 51.2385 19.5977 52.1771 19.1073C53.1298 18.603 54.2015 18.3508 55.3923 18.3508C56.5832 18.3508 57.6479 18.603 58.5865 19.1073C59.5252 19.5977 60.2607 20.2842 60.793 21.1668C61.3254 22.0494 61.5916 23.051 61.5916 24.1718C61.5916 25.2926 61.3254 26.2943 60.793 27.1769C60.2607 28.0595 59.5252 28.7529 58.5865 29.2573C57.6479 29.7476 56.5832 29.9928 55.3923 29.9928ZM55.3923 27.303C56.2329 27.303 56.9194 27.0228 57.4517 26.4624C57.9981 25.888 58.2713 25.1245 58.2713 24.1718C58.2713 23.2192 57.9981 22.4626 57.4517 21.9023C56.9194 21.3279 56.2329 21.0407 55.3923 21.0407C54.5518 21.0407 53.8583 21.3279 53.3119 21.9023C52.7655 22.4626 52.4924 23.2192 52.4924 24.1718C52.4924 25.1245 52.7655 25.888 53.3119 26.4624C53.8583 27.0228 54.5518 27.303 55.3923 27.303Z" fill="#06A9B3"/>
<path d="M78.2617 18.3508C79.6767 18.3508 80.7975 18.7711 81.624 19.6117C82.4646 20.4383 82.8849 21.6851 82.8849 23.3523V29.8247H79.6067V23.8566C79.6067 22.96 79.4175 22.2945 79.0393 21.8602C78.675 21.4119 78.1497 21.1878 77.4632 21.1878C76.6927 21.1878 76.0832 21.4399 75.6349 21.9443C75.1866 22.4346 74.9625 23.1701 74.9625 24.1508V29.8247H71.6842V23.8566C71.6842 22.0774 70.9697 21.1878 69.5408 21.1878C68.7843 21.1878 68.1818 21.4399 67.7335 21.9443C67.2852 22.4346 67.0611 23.1701 67.0611 24.1508V29.8247H63.7828V18.5189H66.914V19.8218C67.3343 19.3455 67.8456 18.9813 68.448 18.7291C69.0644 18.4769 69.7369 18.3508 70.4654 18.3508C71.2639 18.3508 71.9854 18.5119 72.6299 18.8342C73.2743 19.1424 73.7927 19.5977 74.1849 20.2001C74.6473 19.6117 75.2287 19.1564 75.9291 18.8342C76.6436 18.5119 77.4212 18.3508 78.2617 18.3508Z" fill="#06A9B3"/>
<path d="M91.6413 27.366C92.2297 27.366 92.7481 27.2819 93.1964 27.1138C93.6587 26.9317 94.086 26.6515 94.4783 26.2733L96.2225 28.1645C95.1577 29.3834 93.6027 29.9928 91.5573 29.9928C90.2824 29.9928 89.1546 29.7476 88.174 29.2573C87.1933 28.7529 86.4368 28.0595 85.9044 27.1769C85.372 26.2943 85.1059 25.2926 85.1059 24.1718C85.1059 23.0651 85.365 22.0704 85.8834 21.1878C86.4158 20.2912 87.1372 19.5977 88.0479 19.1073C88.9725 18.603 90.0092 18.3508 91.158 18.3508C92.2367 18.3508 93.2174 18.582 94.1 19.0443C94.9826 19.4926 95.6831 20.1511 96.2015 21.0197C96.7338 21.8742 97 22.8899 97 24.0667L88.6363 25.6848C88.8744 26.2452 89.2457 26.6655 89.75 26.9457C90.2684 27.2259 90.8988 27.366 91.6413 27.366ZM91.158 20.8305C90.3314 20.8305 89.659 21.0967 89.1406 21.6291C88.6223 22.1614 88.3491 22.8969 88.3211 23.8356L93.8268 22.7638C93.6727 22.1754 93.3575 21.7061 92.8812 21.3559C92.4049 21.0056 91.8305 20.8305 91.158 20.8305Z" fill="#06A9B3"/>
<path fill-rule="evenodd" clip-rule="evenodd" d="M46.764 10.1077V29.8244H43.3597V23.7932H36.7752V29.8244H33.2728V10.2459L13.4771 14.205L12.7902 10.7707L34.6336 6.40199C34.7591 6.3734 34.8898 6.35831 35.024 6.35831C35.9833 6.35831 36.7624 7.12968 36.775 8.086C36.7752 8.09828 36.7752 8.11054 36.7752 8.12278V20.9143H43.3597V0H46.764V6.55039L85.2393 13.3904L84.6262 16.8388L46.764 10.1077Z" fill="#FFB257"/>
<path d="M6.74562 14.8689C8.10455 14.8689 9.28836 15.1351 10.297 15.6674C11.3057 16.1998 12.0903 16.9843 12.6507 18.0211C13.211 19.0578 13.4912 20.3116 13.4912 21.7826V29.8311H10.0869V26.3007H3.3623V29.8311H0V21.7826C0 20.3116 0.280192 19.0578 0.840575 18.0211C1.40096 16.9843 2.1855 16.1998 3.19419 15.6674C4.20288 15.1351 5.38669 14.8689 6.74562 14.8689ZM10.0869 23.5689V21.4674C10.0869 20.2486 9.7857 19.331 9.18329 18.7145C8.58087 18.0841 7.76131 17.7689 6.7246 17.7689C5.67388 17.7689 4.84732 18.0841 4.24491 18.7145C3.6565 19.331 3.3623 20.2486 3.3623 21.4674V23.5689H10.0869Z" fill="#06A9B3"/>
<path d="M20.676 29.9993C19.4011 29.9993 18.4065 29.663 17.692 28.9906C16.9775 28.3041 16.6202 27.3374 16.6202 26.0906V14.9998H19.8985V25.9014C19.8985 26.3778 20.0176 26.749 20.2557 27.0152C20.5079 27.2674 20.8581 27.3935 21.3065 27.3935C21.4746 27.3935 21.6427 27.3725 21.8108 27.3304C21.9929 27.2884 22.133 27.2394 22.2311 27.1833L22.3782 29.7261C21.8318 29.9082 21.2644 29.9993 20.676 29.9993Z" fill="#06A9B3"/>
<path d="M30.7963 29.2848C30.474 29.5229 30.0748 29.7051 29.5984 29.8311C29.1361 29.9432 28.6528 29.9993 28.1484 29.9993C26.7895 29.9993 25.7458 29.656 25.0173 28.9695C24.2888 28.2831 23.9245 27.2744 23.9245 25.9435V16.0247H27.2028V18.7776H29.9977V21.2993H27.2028V25.9014C27.2028 26.3778 27.3219 26.749 27.56 27.0152C27.7982 27.2674 28.1414 27.3935 28.5897 27.3935C29.0941 27.3935 29.5424 27.2534 29.9347 26.9732L30.7963 29.2848Z" fill="#06A9B3"/>
</svg>

<svg width="97" height="30" viewBox="0 0 97 30" fill="none" xmlns="http://www.w3.org/2000/svg"><path d="M55.392 29.993c-1.19 0-2.262-.245-3.215-.736a5.639 5.639 0 01-2.206-2.08c-.533-.883-.799-1.884-.799-3.005s.266-2.123.799-3.005a5.49 5.49 0 012.206-2.06c.953-.504 2.025-.756 3.215-.756 1.191 0 2.256.252 3.194.756a5.49 5.49 0 012.207 2.06c.532.882.799 1.884.799 3.005 0 1.12-.267 2.122-.799 3.005a5.637 5.637 0 01-2.206 2.08c-.94.49-2.004.736-3.195.736zm0-2.69c.84 0 1.527-.28 2.06-.84.546-.575.82-1.338.82-2.291 0-.953-.274-1.71-.82-2.27-.533-.574-1.22-.861-2.06-.861-.84 0-1.534.287-2.08.861-.546.56-.82 1.317-.82 2.27 0 .953.274 1.716.82 2.29.546.56 1.24.841 2.08.841zm22.87-8.953c1.415 0 2.535.421 3.362 1.262.84.826 1.26 2.073 1.26 3.74v6.473h-3.277v-5.968c0-.897-.19-1.563-.568-1.997-.364-.448-.89-.672-1.576-.672-.77 0-1.38.252-1.828.756-.448.49-.672 1.226-.672 2.207v5.674h-3.279v-5.968c0-1.78-.714-2.67-2.143-2.67-.757 0-1.36.253-1.807.757-.449.49-.673 1.226-.673 2.207v5.674h-3.278V18.519h3.131v1.303c.42-.476.932-.84 1.534-1.093a5.277 5.277 0 012.017-.378c.799 0 1.52.16 2.165.483a3.758 3.758 0 011.555 1.366 4.658 4.658 0 011.744-1.366 5.607 5.607 0 012.333-.483zm13.379 9.016c.589 0 1.107-.084 1.555-.252.463-.182.89-.463 1.282-.84l1.745 1.89c-1.065 1.22-2.62 1.829-4.666 1.829-1.275 0-2.402-.245-3.383-.736-.98-.504-1.737-1.198-2.27-2.08-.532-.883-.798-1.884-.798-3.005 0-1.107.259-2.102.777-2.984a5.518 5.518 0 012.165-2.08c.924-.505 1.961-.757 3.11-.757 1.079 0 2.06.231 2.942.693a5.094 5.094 0 012.102 1.976c.532.854.798 1.87.798 3.047l-8.364 1.618c.238.56.61.98 1.114 1.26.518.28 1.149.421 1.891.421zm-.483-6.535c-.827 0-1.499.266-2.017.798-.519.532-.792 1.268-.82 2.207l5.506-1.072a2.47 2.47 0 00-.946-1.408c-.476-.35-1.05-.526-1.723-.526z" fill="#06A9B3"/><path fill-rule="evenodd" clip-rule="evenodd" d="M46.764 10.108v19.716H43.36v-6.03h-6.585v6.03h-3.502V10.246l-19.796 3.959-.687-3.434 21.844-4.369a1.751 1.751 0 012.141 1.684v12.828h6.585V0h3.404v6.55l38.475 6.84-.613 3.449-37.862-6.731z" fill="#FFB257"/><path d="M6.746 14.869c1.359 0 2.542.266 3.551.798 1.009.533 1.793 1.317 2.354 2.354.56 1.037.84 2.29.84 3.762v8.048h-3.404v-3.53H3.362v3.53H0v-8.048c0-1.471.28-2.725.84-3.762.561-1.037 1.346-1.821 2.354-2.354 1.009-.532 2.193-.798 3.552-.798zm3.34 8.7v-2.102c0-1.218-.3-2.136-.903-2.752-.602-.63-1.422-.946-2.458-.946-1.051 0-1.878.315-2.48.946-.589.616-.883 1.534-.883 2.752v2.102h6.725zM20.676 30c-1.275 0-2.27-.337-2.984-1.01-.715-.686-1.072-1.653-1.072-2.9V15h3.278v10.9c0 .477.12.848.358 1.114.252.252.602.378 1.05.378.169 0 .337-.02.505-.063.182-.042.322-.09.42-.147l.147 2.543a5.348 5.348 0 01-1.702.273zm10.12-.715c-.322.238-.721.42-1.198.546a6.133 6.133 0 01-1.45.168c-1.358 0-2.402-.343-3.13-1.03-.73-.686-1.094-1.695-1.094-3.026v-9.918h3.279v2.753h2.795v2.521h-2.795v4.602c0 .477.119.848.357 1.114.238.252.581.378 1.03.378.504 0 .952-.14 1.345-.42l.861 2.312z" fill="#06A9B3"/></svg>
